!!!!SEGMENT: pl-kk--kk-i-7--033-004_pekiel-bartlomiej--missa-sanctus.krn
!!!cenid: 16xx:826
!!!COM: Pękiel, Bartłomiej
!!!COM-rismID: pe30105642
!!!CDT: <1633-~1670
!!!CNT: Polish
!!!OPR: Missa
!!!OTL: Sanctus
!!!OMV: 004
!!!PDT: 1664
!!!AGN: Sacred; Mass
!!!YEC: Copyright 2022 Narodowy Instytut Fryderyka Chopina (https://polishscores.org)
!!!YEM: License CC-BY-4.0 (https://creativecommons.org/licenses/by/4.0)
!!!SMS-siglum: PL-Kk
!!!SMS-shelfmark: Kk.I.7
!!!SMS-shelfwork: 033-004 M
!!!SMS-variant:
!!!SMS-altvar:
!!!NIFC-rismSourceID: 300258077
!!!NIFC-rismChildID: 300258110
!!!NIFC-islandoraID: pl-kk:1956
!!!URL-pdf-islandora: https://repozytorium.nifc.pl/islandora/object/pl-kk%3A1956/datastream/PDF/view
!!!URL-scan: https://polish.musicsources.pl/pl/lokalizacje/galeria/rekopisy/6140 @EN{Scan on Polish Music Sources Website} @PL{Skany w portalu Dziedzictwo Muzyki Polskiej w otwartym dostępie}
!!!IIIF: https://repozytorium.nifc.pl/islandora/object/pl-kk%3A1956/datastream/IIIF/view
!!!ONB-nifc: UWAGA: C (skan 0020-0024, s.34-42), A (0106-0110, s.33-41), T(0181-0185, s.27-35), B(0273–277, s.35-43). Części Mszy: 1. Kyrie, 2. Et in terra, 3. Patrem, 4. Sanctus, 5. Agnus Dei
!!!AIN: 1 alto 1 bass 1 soprn 1 tenor
!!!key: G
**kern	**text	**mod-text	**kern	**text	**mod-text	**kern	**text	**mod-text	**kern	**text	**mod-text
*part4	*	*	*part3	*	*	*part2	*	*	*part1	*	*
*staff4	*	*	*staff3	*	*	*staff2	*	*	*staff1	*	*
*Ibass	*	*	*Itenor	*	*	*Ialto	*	*	*Isoprn	*	*
*I"Basso	*	*	*I"Tenore	*	*	*I"Alto	*	*	*I"Canto	*	*
*I'B	*	*	*I'T	*	*	*I'A	*	*	*I'S	*	*
*Ibass	*	*	*Itenor	*	*	*Ialto	*	*	*Isoprn	*	*
*ICvox	*	*	*ICvox	*	*	*ICvox	*	*	*ICvox	*	*
*	*	*	*mI"Tenore II	*	*	*mI"Tenore I	*	*	*mI"Alto	*	*
*	*	*	*mI'T 2	*	*	*mI'T 1	*	*	*mI'A	*	*
*clefF4	*	*	*clefC4	*	*	*clefC4	*	*	*clefC3	*	*
*	*	*	*mclefGv2	*	*	*mclefGv2	*	*	*mclefG2	*	*
*k[]	*	*	*k[]	*	*	*k[]	*	*	*k[]	*	*
*G:	*	*	*G:	*	*	*G:	*	*	*G:	*	*
*M2/1	*	*	*M2/1	*	*	*M2/1	*	*	*M2/1	*	*
*met(C|)	*	*	*met(C|)	*	*	*met(C|)	*	*	*met(C|)	*	*
*mmet(c)	*	*	*mmet(c)	*	*	*mmet(c)	*	*	*mmet(c)	*	*
=1-	=1-	=1-	=1-	=1-	=1-	=1-	=1-	=1-	=1-	=1-	=1-
*	*	*	*2\right	*	*	*2\right	*	*	*	*	*
!	!	!	!	!	!	!	!	!	!LO:TX:a:t=P:problem=C3 klucz na początku systemu	!	!
!	!	!	!LO:TX:a:t=P:problem=plik źródłowy&colon;<pl-kk--i-7--0184	!	!	!LO:TX:a:t=P:problem=plik źródłowy&colon;<pl-kk--i-7--0109	!	!	!LO:TX:a:t=P:problem=plik źródłowy&colon;< pl-kk--i-7--0023	!	!
!LO:TX:a:t=P:problem=plik źródłowy&colon;< pl-kk--i-7--0276	!	!	!	!	!	!	!	!	!LO:TX:t=P:problem=kreska pseudotaktowa	!	!
*xywh-#276:7137,1188,6017,749	*	*	*xywh-#184:7084,470,6317,938	*	*	*xywh-#109:9183,1978,4225,727	*	*	*xywh-#23:3496,2479,3394,712	*	*
0GG/	San-	San-	2.B\	SAn-	San-	2.d\	SAn-	San-	1g\	SAn	San-
!	!	!	!LO:TX:t=P:problem=kreska pseudotaktowa	!	!	!LO:TX:t=P:problem=kreska pseudotaktowa	!	!	!	!	!
.	.	.	4c\	-ctus	.	4c\	.	.	.	.	.
*	*	*	*	*	*	*	*	*	*2\right	*	*
!	!	!	!	!	!	!	!	!	!LO:TX:a:t=P:problem=all\right GLOBAL	!	!
.	.	.	1d\	.	.	4B\	.	.	2d\	.	.
.	.	.	.	.	.	4A/	.	.	.	.	.
.	.	.	.	.	.	1B\	.	.	1g\	.	.
=2-	=2-	=2-	=2-	=2-	=2-	=2-	=2-	=2-	=2-	=2-	=2-
0Dl\;>	-ctus	-ctus	0dl\;<	.	-ctus	.	.	.	.	.	.
!	!	!	!	!	!	!	!	!	!LO:TX:a:t=P:problem=# above	!	!
.	.	.	.	.	.	4A/	.	.	4f#X\	.	.
.	.	.	.	.	.	4G/	-ctus	.	4e\	ctus	.
!	!	!	!	!	!	!LO:TX:t=P:global:problem=fermata odwrócona pod nutą	!	!	!LO:TX:t=P:global:problem=fermata odwrócona pod nutą	!	!
.	.	.	.	.	.	1Al\;<	.	-ctus	1f#Xl\;<	.	-ctus
=3||-	=3||-	=3||-	=3||-	=3||-	=3||-	=3||-	=3||-	=3||-	=3||-	=3||-	=3||-
!LO:MO:mod=*null:null	!	!	!LO:MO:mod=*null:null	!	!	!LO:MO:mod=*null:null	!	!	!LO:MO:mod=*null:null	!	!
*M2/1	*	*	*M2/1	*	*	*M2/1	*	*	*M2/1	*	*
*met(C|)	*	*	*met(C|)	*	*	*met(C|)	*	*	*met(C|)	*	*
0AA/	San-	San-	2.e\	SAn-	San-	2.A/	San-	San-	1a\	SAn-	San-
!	!	!	!LO:TX:t=P:problem=kreska pseudotaktowa	!	!	!LO:TX:t=P:problem=kreska pseudotaktowa	!	!	!	!	!
.	.	.	4d\	.	.	4B\	.	.	.	.	.
.	.	.	4c\	.	.	2.c\	.	.	2e\	.	.
.	.	.	4B\	.	.	.	.	.	.	.	.
.	.	.	1c\	.	.	.	.	.	1a\	.	.
.	.	.	.	.	.	4d\	.	.	.	.	.
=4-	=4-	=4-	=4-	=4-	=4-	=4-	=4-	=4-	=4-	=4-	=4-
0El\;:	-ctus	-ctus	.	.	.	0el\;<	-ctus	-ctus	.	.	.
!	!	!	!	!	!	!	!	!	!LO:TX:a:t=P:problem=# above	!	!
.	.	.	4B\	.	.	.	.	.	4g#X\	.	.
!	!	!	!LO:TX:t=P:problem=kreska pseudotaktowa	!	!	!	!	!	!LO:TX:a:t=P:problem=# above	!	!
.	.	.	4A/	-ctus	.	.	.	.	4f#X\	-ctus	.
.	.	.	1Bl\;>	.	-ctus	.	.	.	1g#Xl\;<	.	-ctus
*	*	*	*	*	*	*custos:ee	*	*	*	*	*
!	!	!	!	!	!	!LO:LB:g=original	!	!	!LO:LB:g=original	!	!
=5||-	=5||-	=5||-	=5||-	=5||-	=5||-	=5||-	=5||-	=5||-	=5||-	=5||-	=5||-
!LO:MO:mod=*null:null	!	!	!LO:MO:mod=*null:null	!	!	!LO:MO:mod=*null:null	!	!	!LO:MO:mod=*null:null	!	!
*M2/1	*	*	*M2/1	*	*	*M2/1	*	*	*M2/1	*	*
*met(C|)	*	*	*met(C|)	*	*	*met(C|)	*	*	*met(C|)	*	*
!	!	!	!	!	!	!	!	!	!LO:N:acc=-	!	!
*	*	*	*	*	*	*xywh-#109:7389,2592,6155,662	*	*	*xywh-#23:1187,3062,5751,874	*	*
[1C/	San-	San-	0c\	San-	San-	1e\	San-	San-	0gn\	San-	San-
4C/]	.	.	.	.	.	2e\	-ctus	-ctus	.	.	.
4D/	.	.	.	.	.	.	.	.	.	.	.
*	*	*	*	*	*	*	*ij	*ij	*	*	*
4E/	.	.	.	.	.	1e\	San-	San-	.	.	.
!LO:TX:t=P:problem=kreska pseudotaktowa	!	!	!	!	!	!	!	!	!	!	!
4C/	.	.	.	.	.	.	.	.	.	.	.
=6-	=6-	=6-	=6-	=6-	=6-	=6-	=6-	=6-	=6-	=6-	=6-
*2\right	*	*	*	*	*	*	*	*	*	*	*
2G\	-ct(us)	.	2c\	-ct(us)	-ctus	.	.	.	2g\	-ctus	-ctus
1G\	.	-ctus	4B\	.	San-	4d\	.	.	4g\	.	San-
!	!	!	!LO:TX:t=P:problem=kreska pseudotaktowa	!	!	!LO:TX:t=P:problem=kreska pseudotaktowa	!	!	!	!	!
.	.	.	4A\	.	.	4c\	.	.	8f\L	.	.
!	!	!	!	!	!	!	!	!	!LO:TX:t=P:problem=kreska pseudotaktowa	!	!
.	.	.	.	.	.	.	.	.	8e\J	.	.
.	.	.	4B\	San-	.	2d\	-ctus	-ctus	4d\	San-	.
.	.	.	4c\	.	.	.	.	.	4e\	.	.
2F\	San-	San-	1d\	.	.	2r	.	.	4f\	.	.
.	.	.	.	.	.	.	.	.	4d\	.	.
=7-	=7-	=7-	=7-	=7-	=7-	=7-	=7-	=7-	=7-	=7-	=7-
(1E\	.	.	.	.	.	2r	.	.	1.g\	.	.
!	!	!	!LO:TX:t=P:problem=kreska pseudotaktowa	!	!	!	!	!	!	!	!
!	!	!	!LO:TX:a:t=P:problem=# above	!	!	!	!	!	!	!	!
.	.	.	2c#X\	-ct(us)	.	4G/	San-	San-	.	.	.
!	!	!	!	!	!	!LO:TX:t=P:problem=kreska pseudotaktowa	!	!	!	!	!
.	.	.	.	.	.	4A/	.	.	.	.	.
!LO:TX:t=P:problem=kreska pseudotaktowa	!	!	!	!	!	!	!	!	!	!	!
1D\)	.	.	1d\	.	-ctus	4B\	.	.	.	.	.
.	.	.	.	.	.	4A/	.	.	.	.	.
.	.	.	.	.	.	1d\	.	.	1f\	-ctus	-ctus
=8-	=8-	=8-	=8-	=8-	=8-	=8-	=8-	=8-	=8-	=8-	=8-
[1AA/	.	.	2r	.	.	.	.	.	.	.	.
*	*	*	*	*ij	*ij	*	*	*	*	*	*ij
.	.	.	4A/	San-	San-	4c\	.	.	4e\	.	San-
!	!	!	!LO:TX:t=P:problem=kreska pseudotaktowa	!	!	!LO:TX:t=P:problem=kreska pseudotaktowa	!	!	!LO:TX:t=P:problem=kreska pseudotaktowa	!	!
.	.	.	4B\	.	.	4B\	.	.	4d\	.	.
*	*	*	*	*	*	*lig	*	*	*	*ij	*
4AA/]	.	.	4c\	.	.	1A\	.	.	4e\	San-	.
4BB/	.	.	4d\	.	.	.	.	.	4d\	.	.
!	!	!	!LO:TX:t=P:problem=kreska pseudotaktowa	!	!	!	!	!	!	!	!
4C/	.	.	2e\	.	.	.	.	.	2c/	.	.
!LO:TX:t=P:problem=kreska pseudotaktowa	!	!	!	!	!	!	!	!	!	!	!
4AA/	.	.	.	.	.	.	.	.	.	.	.
=9-	=9-	=9-	=9-	=9-	=9-	=9-	=9-	=9-	=9-	=9-	=9-
1E\	.	.	4E/	.	.	1G/	.	.	2B/	.	.
!	!	!	!LO:TX:a:t=P:problem=# below	!	!	!	!	!	!	!	!
.	.	.	4F#X/	.	.	.	.	.	.	.	.
!	!	!	!LO:TX:a:t=P:problem=# below	!	!	!	!	!	!	!	!
!	!	!	!LO:SIC:v:o=4G#X/	!	!	!	!	!	!	!	!
.	.	.	4G	.	.	.	.	.	1e\	-ctus	.
*	*	*	*custos:B	*	*	*	*	*	*	*	*
.	.	.	4A/	-ct(us)	.	.	.	.	.	.	.
!	!	!	!LO:LB:g=original	!	!	!	!	!	!	!	!
!	!	!	!LO:TX:t=P:problem=kreska pseudotaktowa	!	!	!	!	!	!	!	!
*	*	*	*	*	*	*Xlig	*	*	*	*	*
!	!	!	!	!	!	!LO:TX:t=P:problem=kreska pseudotaktowa	!	!	!	!	!
*	*	*	*xywh-#184:7084,1228,6136,721	*	*	*	*	*	*	*	*
1BB/	.	.	1.B\	San-	-ctus	1F#X/	.	.	.	.	.
!	!	!	!	!	!	!	!	!	!LO:TX:t=P:problem=kreska pseudotaktowa	!	!
.	.	.	.	.	.	.	.	.	2d\	.	-ctus
=10-	=10-	=10-	=10-	=10-	=10-	=10-	=10-	=10-	=10-	=10-	=10-
2.C/	.	.	.	.	.	2E/	-ctus	-ctus	2c/	San-	San-
*	*	*	*	*	*	*	*Xij	*Xij	*	*	*
.	.	.	2.A/	.	San-	2.c\	San-	San-	1e\	.	.
4D/	.	.	.	.	.	.	.	.	.	.	.
*custos:D	*	*	*	*	*	*	*	*	*	*	*
!LO:TX:t=P:problem=kreska pseudotaktowa	!	!	!	!	!	!	!	!	!	!	!
!LO:LB:g=original	!	!	!	!	!	!	!	!	!	!	!
1E\	.	.	.	.	.	.	.	.	.	.	.
.	.	.	4G/	.	.	4B\	.	.	.	.	.
!	!	!	!	!	!	!	!	!	!LO:TX:t=P:problem=kreska pseudotaktowa	!	!
.	.	.	1c\	.	.	4A/	.	.	2e\	-ctus	-ctus
!	!	!	!	!	!	!LO:TX:t=P:problem=kreska pseudotaktowa	!	!	!	!	!
.	.	.	.	.	.	4G/	.	.	.	.	.
=11-	=11-	=11-	=11-	=11-	=11-	=11-	=11-	=11-	=11-	=11-	=11-
!	!	!	!	!	!	!	!	!	!LO:TX:a:t=P:problem=# above	!	!
*xywh-#276:7161,1834,5906,669	*	*	*	*	*	*	*	*	*	*	*
0D\	.	.	.	.	.	0d\	-ctus	.	2f#X\	San-	San-
!	!	!	!LO:TX:t=P:problem=kreska pseudotaktowa	!	!	!	!	!	!	!	!
.	.	.	2B\	.	.	.	.	.	1g\	.	.
.	.	.	1A\	.	.	.	.	.	.	.	.
.	.	.	.	.	.	.	.	.	2f#\	.	.
=12-	=12-	=12-	=12-	=12-	=12-	=12-	=12-	=12-	=12-	=12-	=12-
!LO:TX:t=P:problem=kreska pseudotaktowa	!	!	!LO:TX:t=P:problem=kreska pseudotaktowa	!	!	!	!	!	!LO:TX:t=P:problem=kreska pseudotaktowa	!	!
1GG/	-ctus	-ctus	1B\	-ct(us)	-ctus	2d\	.	-ctus	1g\	-ctus	-ctus
.	.	.	.	.	.	4.d\	Do-	Do-	.	.	.
!	!	!	!	!	!	!LO:TX:t=P:problem=kreska pseudotaktowa	!	!	!	!	!
.	.	.	.	.	.	8d\	-mi-	-mi-	.	.	.
*	*	*	*	*Xij	*Xij	*	*	*	*	*	*
4.G\	Do-	Do-	4.B\	Do-	Do-	2B\	-n(us)	-nus	2r	.	.
8G\	-mi-	-mi-	8B\	-mi-	-mi-	.	.	.	.	.	.
!	!	!	!LO:TX:t=P:problem=kreska pseudotaktowa	!	!	!	!	!	!	!	!
*	*	*	*	*	*	*	*	*	*	*Xij	*Xij
2E\	-n(us)	-nus	2G/	-n(us)	-nus	2.e\	.	De-	4.g\	Do-	Do-
!	!	!	!	!	!	!	!	!	!LO:TX:t=P:problem=kreska pseudotaktowa	!	!
.	.	.	.	.	.	.	.	.	8g\	-mi-	-mi-
=13-	=13-	=13-	=13-	=13-	=13-	=13-	=13-	=13-	=13-	=13-	=13-
!	!	!	!	!	!	!LO:TX:t=P:problem=kreska pseudotaktowa	!	!	!LO:SIC:v:o=2d\	!	!
2.A\	.	De-	2.c\	De-	De-	.	.	.	2e	-nus	-nus
.	.	.	.	.	.	4d\	De-	.	.	.	.
.	.	.	.	.	.	1c\	.	.	1a\	.	De-
4G\	De-	.	4B\	.	.	.	.	.	.	.	.
2F\	.	.	4A/	.	.	.	.	.	.	.	.
.	.	.	4B\	.	.	.	.	.	.	.	.
!LO:TX:t=P:problem=kreska pseudotaktowa	!	!	!	!	!	!	!	!	!LO:TX:t=P:problem=kreska pseudotaktowa	!	!
2E\	-us	-us	4c\	.	.	4c\	-us	-us	2g\	De-	-us
!	!	!	!LO:TX:t=P:problem=kreska pseudotaktowa	!	!	!	!	!	!	!	!
.	.	.	4G/	-us	-us	2c\	Sab-	Sab-	.	.	.
=14-	=14-	=14-	=14-	=14-	=14-	=14-	=14-	=14-	=14-	=14-	=14-
2.D/	Sab-	Sab-	2.d\	Sab-	Sab-	.	.	.	2.f\	-o	Sab-
.	.	.	.	.	.	8B\L	.	.	.	.	.
*	*	*	*	*	*	*custos:b	*	*	*	*	*
.	.	.	.	.	.	8A\J	.	.	.	.	.
!	!	!	!	!	!	!LO:LB:g=original	!	!	!	!	!
*	*	*	*	*	*	*xywh-#109:7470,3206,6034,718	*	*	*	*	*
.	.	.	.	.	.	4.B\	-ba-	.	.	.	.
*	*	*	*	*	*	*	*	*	*custos:ee	*	*
!	!	!	!	!	!	!	!	!	!LO:TX:t=P:problem=kreska pseudotaktowa	!	!
4D/	-ba-	-ba-	4d\	-ba-	-ba-	.	.	.	4f\	Sabba-	-ba-
.	.	.	.	.	.	8B\	-oth	-ba-	.	.	.
!	!	!	!	!	!	!	!	!	!LO:LB:g=original	!	!
!LO:TX:t=P:problem=kreska pseudotaktowa	!	!	!	!	!	!	!	!	!LO:TX:t=P:problem=kreska pseudotaktowa	!	!
*	*	*	*	*	*	*	*	*	*xywh-#23:1155,3734,5799,801	*	*
1C/	-oth	-oth	2G/	-oth	-oth	2c\	.	-oth	1e\,	-oth	-oth
!	!	!	!	!	!	!LO:TX:t=P:problem=kreska pseudotaktowa	!	!	!	!	!
.	.	.	2.c\	.	Do-	2r	.	.	.	.	.
=15-	=15-	=15-	=15-	=15-	=15-	=15-	=15-	=15-	=15-	=15-	=15-
!	!	!	!LO:TX:t=P:problem=kreska pseudotaktowa	!	!	!	!	!	!	!	!
*	*	*	*	*	*	*	*ij	*ij	*	*	*
00r	.	.	.	.	.	4.e\	Do-	Do-	4.g\	Do-	Do-
*	*	*	*	*ij	*ij	*	*	*	*	*	*
.	.	.	4c\	Do-	-mi-	.	.	.	.	.	.
.	.	.	.	.	.	8e\	-mi-	-mi-	8g\	-mi-	-mi-
!	!	!	!LO:TX:t=P:problem=kreska pseudotaktowa	!	!	!LO:TX:t=P:problem=kreska pseudotaktowa	!	!	!LO:TX:t=P:problem=kreska pseudotaktowa	!	!
.	.	.	2A/	-mi-	nus	2f\	-nus	-nus	2a\	-n(us)	-nus
.	.	.	1.c\	-n(us)	De-	1.e\	De-	De-	8g\L	De-	De-
.	.	.	.	.	.	.	.	.	8f\	.	.
.	.	.	.	.	.	.	.	.	8e\	.	.
.	.	.	.	.	.	.	.	.	8d\J	.	.
.	.	.	.	.	.	.	.	.	4c/	.	.
!	!	!	!	!	!	!	!	!	!LO:TX:t=P:problem=kreska pseudotaktowa	!	!
.	.	.	.	.	.	.	.	.	4d\	.	.
=16-	=16-	=16-	=16-	=16-	=16-	=16-	=16-	=16-	=16-	=16-	=16-
.	.	.	.	.	.	.	-us	.	4e\	.	-us
.	.	.	.	.	.	.	.	.	4c/	-us	.
!	!	!	!LO:TX:t=P:problem=kreska pseudotaktowa	!	!	!LO:TX:t=P:problem=kreska pseudotaktowa	!	!	!	!	!
.	.	.	2B\	De-	-us	2d\	Sab-	-us	2.g\	.	Sab-
.	.	.	2.A/	-us	Sab-	2.c\	-ba-	Sab-	.	.	.
!	!	!	!	!	!	!	!	!	!LO:TX:a:t=P:problem=# above	!	!
.	.	.	.	.	.	.	.	.	8f#X\L	Sab-	.
.	.	.	.	.	.	.	.	.	8e\J	.	.
!	!	!	!	!	!	!	!	!	!LO:TX:a:t=P:problem=# above	!	!
.	.	.	.	.	.	.	.	.	4.f#X\	-ba-	.
!	!	!	!LO:TX:t=P:problem=kreska pseudotaktowa	!	!	!LO:TX:t=P:problem=kreska pseudotaktowa	!	!	!	!	!
.	.	.	4A/	Sab-	-ba-	4c\	-oth	-ba-	.	.	.
!	!	!	!	!	!	!	!	!	!LO:TX:t=P:problem=kreska pseudotaktowa	!	!
.	.	.	.	.	.	.	.	.	8f#\	-oth	-ba-
=17-	=17-	=17-	=17-	=17-	=17-	=17-	=17-	=17-	=17-	=17-	=17-
2.G\	Do-	Do-	2B\	-ba-	-oth	4d\	Do-	-oth	2g\	.	-oth
.	.	.	.	.	.	4.d\	-mi-	Do-	.	.	.
.	.	.	4.B\	-oth	Do-	.	.	.	4.g\	Do-	Do-
.	.	.	.	.	.	8d\	-nus	-mi-	.	.	.
!LO:TX:t=P:problem=kreska pseudotaktowa	!	!	!	!	!	!LO:TX:t=P:problem=kreska pseudotaktowa	!	!	!	!	!
4G\	-mi-	-mi-	.	.	.	4e\	De-	-nus	.	.	.
!	!	!	!LO:TX:t=P:problem=kreska pseudotaktowa	!	!	!	!	!	!	!	!
.	.	.	8B\	.	-mi	.	.	.	8g\	-mi-	-mi-
!	!	!	!	!	!	!	!	!	!LO:TX:t=P:problem=kreska pseudotaktowa	!	!
1A\	-nus	-nus	2c\	Do-	-nus	4e\	-us	De-	1e\	-n(us)	-nus
.	.	.	.	.	.	4d\	.	-us	.	.	.
.	.	.	1e\	-mi-	De-	1c\	Sab-	Sab-	.	.	.
=18-	=18-	=18-	=18-	=18-	=18-	=18-	=18-	=18-	=18-	=18-	=18-
!	!	!	!	!	!	!	!	!	!LO:TX:a:t=2:mod=	!	!
1F\	.	De-	.	.	.	.	.	.	0r	.	.
!	!	!	!LO:TX:t=P:problem=kreska pseudotaktowa	!	!	!	!	!	!	!	!
.	.	.	2d\	-nus	.	4B\	-ba-	-ba-	.	.	.
!	!	!	!	!	!	!LO:TX:t=P:problem=kreska pseudotaktowa	!	!	!	!	!
.	.	.	.	.	.	4A\	.	.	.	.	.
2E\	De-	-us	2e\	De-	-us	2B\	-oth	-oth	.	.	.
*	*	*	*	*	*	*	*Xij	*Xij	*	*	*
4C/	-us	Sab-	1e\	-us-	Sab-	1c\	Do-	Do-	.	.	.
!LO:TX:t=P:problem=kreska pseudotaktowa	!	!	!	!	!	!	!	!	!	!	!
4D/	.	.	.	.	.	.	.	.	.	.	.
=19-	=19-	=19-	=19-	=19-	=19-	=19-	=19-	=19-	=19-	=19-	=19-
4E\	Sab-	.	.	.	.	.	.	.	1g\	De-	De-
4F\	.	.	.	.	.	.	.	.	.	.	.
1G\	.	.	4d\	.	.	4B\	-mi-	-mi-	.	.	.
!	!	!	!LO:TX:t=P:problem=kreska pseudotaktowa	!	!	!LO:TX:t=P:problem=kreska pseudotaktowa	!	!	!	!	!
.	.	.	4c\	.	.	4A/	-n(us)	-nus	.	.	.
!	!	!	!	!	!	!	!	!	!LO:TX:t=P:problem=kreska pseudotaktowa	!	!
!	!	!	!	!	!	!	!	!	!LO:SIC:v:o=1a\	!	!
.	.	.	4.B\	-Sab-	.	4B\	De-	De-	1g	-us	-us
.	.	.	.	.	.	4G/	-us	-us	.	.	.
.	.	.	8B\	-ba-	-ba-	.	.	.	.	.	.
*	*	*	*custos:B	*	*	*	*	*	*	*	*
!LO:TX:a:t=P:problem=# above	!	!	!	!	!	!	!	!	!	!	!
!LO:TX:t=P:problem=kreska pseudotaktowa	!	!	!LO:TX:t=P:problem=kreska pseudotaktowa	!	!	!	!	!	!	!	!
2F#X\	.	.	2A/	-oth	-oth	1d\	Sab-	Sab-	.	.	.
*	*	*	*	*Xij	*Xij	*	*	*	*	*	*
!	!	!	!LO:LB:g=original	!	!	!	!	!	!	!	!
=20-	=20-	=20-	=20-	=20-	=20-	=20-	=20-	=20-	=20-	=20-	=20-
*	*	*	*xywh-#184:7096,1806,6220,721	*	*	*	*	*	*	*	*
2.E\	-ba-	.	2B\	Sab-	Sab-	.	.	.	4g\	Sab-	Sab-
.	.	.	.	.	.	.	.	.	4f\	.	.
!	!	!	!LO:TX:t=P:problem=kreska pseudotaktowa	!	!	!	!	!	!	!	!
!	!	!	!	!	!	!LO:TX:a:t=P:problem=# above	!	!	!	!	!
.	.	.	2G/	-ba-	-ba-	2c#X\	-ba-	-ba-	4.e\	.	.
4E\	.	-ba-	.	.	.	.	.	.	.	.	.
!	!	!	!	!	!	!	!	!	!LO:TX:t=P:problem=kreska pseudotaktowa	!	!
.	.	.	.	.	.	.	.	.	8e\	-ba-	-ba-
2D/	-oth	-oth	2F#X/	-oth	-oth	2d\	-oth	-oth	2A/	-oth	-oth
1D\	De-	De-	4D/	De-	De-	4d\	Sab-	Sab-	1A/	De-	De-
!	!	!	!LO:TX:t=P:problem=kreska pseudotaktowa	!	!	!	!	!	!	!	!
.	.	.	4E/	.	.	8c#\L	.	.	.	.	.
!	!	!	!	!	!	!LO:TX:t=P:problem=kreska pseudotaktowa	!	!	!	!	!
.	.	.	.	.	.	8B\J	.	.	.	.	.
=21-	=21-	=21-	=21-	=21-	=21-	=21-	=21-	=21-	=21-	=21-	=21-
!	!	!	!LO:TX:a:t=P:problem=# above	!	!	!	!	!	!	!	!
.	.	.	4F#X/	.	.	4A/	.	.	.	.	.
.	.	.	4G/	.	.	4B\	.	.	.	.	.
!LO:TX:t=P:problem=kreska pseudotaktowa	!	!	!	!	!	!	!	!	!LO:TX:t=P:problem=kreska pseudotaktowa	!	!
2C/	-us	-us	4A/	.	.	4c\	.	.	2e\	-(us)	-us
!	!	!	!LO:TX:t=P:problem=kreska pseudotaktowa	!	!	!	!	!	!	!	!
.	.	.	4B\	-us	.	8d\L	.	.	.	.	.
!	!	!	!	!	!	!LO:TX:t=P:problem=kreska pseudotaktowa	!	!	!	!	!
.	.	.	.	.	.	8e\J	.	.	.	.	.
*	*	*	*	*	*	*custos:a	*	*	*	*	*
1.E\	Sab-	Sab-	2c\	Sab-	-us	2G#X/	-ba-	.	1.e\	Sab-	Sab-
!	!	!	!	!	!	!LO:LB:g=original	!	!	!	!	!
*	*	*	*	*	*	*xywh-#109:7430,3820,6002,953	*	*	*	*	*
.	.	.	4B\	.	.	1A\	-oth	.	.	.	.
!	!	!	!LO:TX:a:t=P:problem=kreska pseudotaktowa	!	!	!	!	!	!	!	!
.	.	.	4A\	.	.	.	.	.	.	.	.
=22-	=22-	=22-	=22-	=22-	=22-	=22-	=22-	=22-	=22-	=22-	=22-
.	.	.	2.B\	-ba	Sab-	.	.	.	.	.	.
*custos:AA	*	*	*	*	*	*	*	*	*	*	*
!LO:TX:t=P:problem=kreska pseudotaktowa	!	!	!	!	!	!LO:TX:t=P:problem=kreska pseudotaktowa	!	!	!	!	!
!	!	!	!	!	!	!LO:SIC:o=2G#y/	!	!	!	!	!
2E\	-ba-	-ba-	.	.	.	2G#i	.	-ba-	2e\	-ba	-ba
.	.	.	4B\	oth	-ba-	.	.	.	.	.	.
!LO:LB:g=original	!	!	!	!	!	!	!	!	!	!	!
*xywh-#276:7137,2352,5985,789	*	*	*	*	*	*	*	*	*	*	*
2AA,/	-oth	-oth	2c,\	.	-oth	1A\	.	-oth	1e\,	oth	oth
!LO:TX:t=P:problem=kreska pseudotaktowa	!	!	!LO:TX:t=P:problem=kreska pseudotaktowa	!	!	!	!	!	!	!	!
2A\	Ple-	Ple-	2c\	Ple-	Ple-	.	.	.	.	.	.
=23-	=23-	=23-	=23-	=23-	=23-	=23-	=23-	=23-	=23-	=23-	=23-
!	!	!	!	!	!	!	!	!	!LO:TX:t=P:problem=kreska pseudotaktowa	!	!
2A\	.	-ni	2c\	-ni	-ni	1r	.	.	1e\	Ple-	Ple-
!LO:TX:a:t=P:problem=# above	!	!	!	!	!	!	!	!	!	!	!
2G#X\	-ni	sunt	2B\	Sunt	Sunt	.	.	.	.	.	.
!	!	!	!LO:TX:t=P:problem=kreska pseudotaktowa	!	!	!	!	!	!	!	!
(2A\	Sunt	cae-	1c\	c(ae)-	cae-	2r	.	.	2e\	.	-ni
!LO:TX:t=P:problem=kreska pseudotaktowa	!	!	!	!	!	!LO:TX:t=P:problem=kreska pseudotaktowa	!	!	!	!	!
2AA/)	.	.	.	.	.	2A/	Ple-	Ple-	2e\	-ni	sunt
=24-	=24-	=24-	=24-	=24-	=24-	=24-	=24-	=24-	=24-	=24-	=24-
*	*	*	*	*	*	*	*	*	*	*	*ij
1E\	c(ae)-	.	2.B\	-li	-li	2A/	-ni	-ni	1e\	Sunt	Ple-
!	!	!	!	!	!	!LO:TX:t=P:problem=kreska pseudotaktowa	!	!	!	!	!
.	.	.	.	.	.	2G#X/	Sunt	sunt	.	.	.
.	.	.	4c\	et	et	.	.	.	.	.	.
*	*	*	*	*	*	*	*	*	*	*ij	*
2D/	-li	-li	1d\	ter-	ter-	4A/	c(ae)-	cae-	2f\	Sunt	-ni
*	*	*	*	*	*	*	*	*	*	*Xij	*
.	.	.	.	.	.	4D/	.	.	.	.	.
*	*	*	*	*	*	*	*	*	*custos:ff	*	*
!LO:TX:t=P:problem=kreska pseudotaktowa	!	!	!	!	!	!LO:TX:t=P:problem=kreska pseudotaktowa	!	!	!LO:TX:t=P:problem=kreska pseudotaktowa	!	!
*	*ij	*ij	*	*	*	*	*	*	*	*	*
2D/	Ple-	Ple-	.	.	.	2d\	.	.	2f\	.	sunt
*	*	*	*	*	*	*	*	*	*	*	*Xij
!	!	!	!	!	!	!	!	!	!LO:PB:g=original	!	!
=25-	=25-	=25-	=25-	=25-	=25-	=25-	=25-	=25-	=25-	=25-	=25-
!	!	!	!LO:TX:t=P:problem=kreska pseudotaktowa	!	!	!	!	!	!	!	!
*	*	*	*	*	*	*	*	*	*xywh-#23:7145,619,6091,785	*	*
2D/	-ni-	-ni-	1A\	-ra	-ra	2d\	-li	-li	2f\	c(ae)-	cae-
!	!	!	!	!	!	!LO:TX:t=P:problem=kreska pseudotaktowa	!	!	!LO:TX:t=P:problem=kreska pseudotaktowa	!	!
2C#X/	-sunt	-sunt	.	.	.	2r	.	.	2e\	-li	-li
1D\	c(ae)-	cae-	2r	.	.	1r	.	.	4d\	et	et
.	.	.	.	.	.	.	.	.	4e\	.	.
.	.	.	2d\	Ple-	Ple-	.	.	.	4f\	.	.
.	.	.	.	.	.	.	.	.	8g\L	.	.
!	!	!	!	!	!	!	!	!	!LO:TX:t=P:problem=kreska pseudotaktowa	!	!
.	.	.	.	.	.	.	.	.	8f\J	.	.
=26-	=26-	=26-	=26-	=26-	=26-	=26-	=26-	=26-	=26-	=26-	=26-
!LO:TX:t=P:problem=kreska pseudotaktowa	!	!	!	!	!	!	!	!	!	!	!
1AA/	-li	-li	2d\	-ni	-ni	1r	.	.	2e\	.	.
!	!	!	!LO:TX:a:t=P:problem=# above	!	!	!	!	!	!	!	!
!	!	!	!LO:TX:t=P:problem=kreska pseudotaktowa	!	!	!	!	!	!	!	!
.	.	.	2c#X\	.	sunt	.	.	.	1a\	.	ter-
1r	.	.	4d\	Sunt	cae-	2r	.	.	.	.	.
.	.	.	4c#\	.	.	.	.	.	.	.	.
!	!	!	!LO:TX:t=P:problem=kreska pseudotaktowa	!	!	!LO:TX:t=P:problem=kreska pseudotaktowa	!	!	!LO:TX:a:t=P:problem=# above	!	!
*	*	*	*	*	*	*	*ij	*ij	*	*	*
.	.	.	2B\	c(ae)-	.	2d\	Ple-	Ple-	2g#X\	ter-	.
=27-	=27-	=27-	=27-	=27-	=27-	=27-	=27-	=27-	=27-	=27-	=27-
!	!	!	!	!	!	!	!	!	!LO:TX:t=P:problem=kreska pseudotaktowa	!	!
2r	.	.	1A\	-li	-li	2d\	-ni	-ni	1a\	-ra	-ra
*	*Xij	*Xij	*	*	*	*	*	*	*	*	*
!	!	!	!	!	!	!LO:TX:a:t=P:problem=# above	!	!	!	!	!
!LO:TX:t=P:problem=kreska pseudotaktowa	!	!	!	!	!	!LO:TX:t=P:problem=kreska pseudotaktowa	!	!	!	!	!
2A\	Ple-	Ple-	.	.	.	2c#X\	Sunt	sunt	.	.	.
!	!	!	!LO:TX:t=P:problem=kreska pseudotaktowa	!	!	!	!	!	!	!	!
2A\	-ni	-ni	1B\	et	et	2d\	c(ae)-	cae-	0r	.	.
2G#X\	Sunt	sunt	.	.	.	2.e\	-li	.	.	.	.
=28-	=28-	=28-	=28-	=28-	=28-	=28-	=28-	=28-	=28-	=28-	=28-
!	!	!	!	!	!	!LO:TX:t=P:problem=kreska pseudotaktowa	!	!	!	!	!
2.A\	.	cae-	2.c\	ter-	ter-	.	.	.	.	.	.
.	.	.	.	.	.	4d\	.	.	.	.	.
.	.	.	.	.	.	1c\	.	.	.	.	.
4G\	c(ae)-	.	4B\	.	.	.	.	.	.	.	.
4F\	.	.	0.A\	-ra	.	.	.	.	2r	.	.
4E\	.	.	.	.	.	.	.	.	.	.	.
!LO:TX:t=P:problem=kreska pseudotaktowa	!	!	!	!	!	!	!	!	!LO:TX:t=P:problem=kreska pseudotaktowa	!	!
2D/	.	.	.	.	.	1d\	.	.	2f\	Ple-	Ple-
=29-	=29-	=29-	=29-	=29-	=29-	=29-	=29-	=29-	=29-	=29-	=29-
2D/	-li	-li	.	.	.	.	.	.	2f\	-ni	-ni
!	!	!	!	!	!	!	!	!	!LO:TX:t=P:problem=kreska pseudotaktowa	!	!
2C#X/	et	et	.	.	.	1e\	.	-li	2e\	.	sunt
4D/	.	ter-	.	.	.	.	.	.	2f\	Sunt	cae-
4E\	ter-	.	.	.	.	.	.	.	.	.	.
*	*	*	*	*	*	*	*Xij	*Xij	*	*	*
4F\	.	.	.	.	.	2.d\	et	et	4f\	c(ae)-	-li
4D/	.	.	.	.	.	.	.	.	4f\	-li	et
=30-	=30-	=30-	=30-	=30-	=30-	=30-	=30-	=30-	=30-	=30-	=30-
!LO:TX:t=P:problem=kreska pseudotaktowa	!	!	!LO:TX:t=P:problem=kreska pseudotaktowa	!	!	!	!	!	!	!	!
1A\	.	.	1A\	.	-ra	.	ter-	.	1e\	et	ter-
!	!	!	!	!	!	!LO:TX:a:t=P:problem=# above	!	!	!	!	!
.	.	.	.	.	.	8c#X\L	.	.	.	.	.
.	.	.	.	.	.	8B\J	.	.	.	.	.
!	!	!	!	!	!	!LO:TX:t=P:problem=kreska pseudotaktowa	!	!	!	!	!
.	.	.	.	.	.	2c#\	.	ter-	.	.	.
!	!	!	!	!	!	!	!	!	!LO:TX:a:t=P:problem=# above	!	!
!	!	!	!	!	!	!	!	!	!LO:TX:t=P:problem=kreska pseudotaktowa	!	!
1D\,	-ra	-ra	2r	.	.	1d\	-ra	-ra	1f#X\	terra	-ra
.	.	.	2.d\	glo-	glo-	.	.	.	.	.	.
=31-	=31-	=31-	=31-	=31-	=31-	=31-	=31-	=31-	=31-	=31-	=31-
2.G\	glo-	glo-	.	.	.	2.B\	glo-	glo-	0r	.	.
*	*	*	*custos:e	*	*	*	*	*	*	*	*
.	.	.	4d\	-ri-	-ri-	.	.	.	.	.	.
!	!	!	!LO:LB:g=original	!	!	!	!	!	!	!	!
!	!	!	!LO:TX:t=P:problem=kreska pseudotaktowa	!	!	!	!	!	!	!	!
*	*	*	*xywh-#184:7096,2359,6245,758	*	*	*	*	*	*	*	*
.	.	.	2e\	-a	-a	.	.	.	.	.	.
!	!	!	!	!	!	!LO:TX:t=P:problem=kreska pseudotaktowa	!	!	!	!	!
4G\	-ri-	-ri-	.	.	.	4B\	-ri-	-ri-	.	.	.
*custos:F	*	*	*	*	*	*	*	*	*	*	*
*	*	*	*	*	*	*custos:ee	*	*	*	*	*
!LO:TX:t=P:problem=kreska pseudotaktowa	!	!	!	!	!	!	!	!	!	!	!
1A\	-a	-a	4e\	tu-	tu-	2A/	-a	-a	.	.	.
.	.	.	4d\	.	.	.	.	.	.	.	.
!	!	!	!	!	!	!LO:PB:g=original	!	!	!	!	!
*	*	*	*	*	*	*xywh-#110:1295,630,5853,883	*	*	*	*	*
.	.	.	1c\	.	.	1e\	tu-	tu-	.	.	.
!LO:LB:g=original	!	!	!	!	!	!	!	!	!	!	!
=32-	=32-	=32-	=32-	=32-	=32-	=32-	=32-	=32-	=32-	=32-	=32-
*xywh-#276:7161,2957,5834,773	*	*	*	*	*	*	*	*	*	*	*
1F\	tu-	tu-	.	.	.	.	.	.	1r	.	.
!	!	!	!	!	!	!LO:TX:t=P:problem=kreska pseudotaktowa	!	!	!	!	!
.	.	.	4B\	.	.	2d\	-a	.	.	.	.
!	!	!	!LO:TX:t=P:problem=kreska pseudotaktowa	!	!	!	!	!	!	!	!
.	.	.	4A\	.	.	.	.	.	.	.	.
2E\	-a	-a	2B\	-a	-a	2e\	.	-a	4.g\	glo-	glo-
.	.	.	.	.	.	.	.	.	8f\	.	.
4C/	.	glo-	2.c\	glo-	glo-	4e\	glo-	glo-	4e\	.	.
!LO:TX:t=P:problem=kreska pseudotaktowa	!	!	!	!	!	!LO:TX:t=P:problem=kreska pseudotaktowa	!	!	!LO:TX:t=P:problem=kreska pseudotaktowa	!	!
4D/	glo-	.	.	.	.	4d\	.	.	4f\	.	.
=33-	=33-	=33-	=33-	=33-	=33-	=33-	=33-	=33-	=33-	=33-	=33-
4E/	-ri-	.	.	.	.	4.c\	-ria	.	4g\	.	.
4C/	-a	-ri-	4c\	-ri-	-ri-	.	.	.	8f\L	.	.
.	.	.	.	.	.	8c\	.	-ri-	8e\J	.	.
!	!	!	!LO:TX:t=P:problem=kreska pseudotaktowa	!	!	!LO:TX:t=P:problem=kreska pseudotaktowa	!	!	!	!	!
2G\	.	-a	2B\	-a	-a	2d\	.	-a	4.d\	.	.
!	!	!	!	!	!	!	!	!	!LO:TX:t=P:problem=kreska pseudotaktowa	!	!
.	.	.	.	.	.	.	.	.	8e\	.	.
!	!	!	!	!	!	!	!	!	!LO:TX:a:t=P:problem=# above	!	!
0D\	tu-	tu-	2A/	tu-	tu-	2.d\	tu-	tu-	4.f#X\	.	.
.	.	.	.	.	.	.	.	.	8f#\	-ria	-ri-
.	.	.	4B\	.	.	.	.	.	4g\	.	-a
!	!	!	!LO:TX:t=P:problem=kreska pseudotaktowa	!	!	!	!	!	!	!	!
.	.	.	4c\	.	.	8c\L	.	.	2g\	tu-	tu-
!	!	!	!	!	!	!LO:TX:t=P:problem=kreska pseudotaktowa	!	!	!	!	!
.	.	.	.	.	.	8B\J	.	.	.	.	.
=34-	=34-	=34-	=34-	=34-	=34-	=34-	=34-	=34-	=34-	=34-	=34-
.	.	.	2d\	.	.	1A\	.	.	.	.	.
.	.	.	.	.	.	.	.	.	8f#X\L	.	.
.	.	.	.	.	.	.	.	.	8e\J	.	.
!	!	!	!LO:TX:t=P:problem=kreska pseudotaktowa	!	!	!	!	!	!LO:TX:t=P:problem=kreska pseudotaktowa	!	!
.	.	.	2D/	.	.	.	.	.	2f#\	.	.
!LO:TX:t=P:problem=kreska pseudotaktowa	!	!	!	!	!	!	!	!	!	!	!
!LO:SIC:o=1GG/;>	!	!	!	!	!	!	!	!	!	!	!
1GG	-a	-a	2D/	-a	-a	2.B\	-a	-a	4g,\	-a,	-a,
.	.	.	.	.	.	.	.	.	4d\	Ho-	Ho-
.	.	.	4r	.	.	.	.	.	2.g\	-ſan-	-ſan-
!	!	!	!LO:TX:t=P:problem=kreska pseudotaktowa	!	!	!LO:TX:t=P:problem=kreska pseudotaktowa	!	!	!	!	!
.	.	.	4G/	Ho-	Ho-	4B\	O-	Ho-	.	.	.
=35-	=35-	=35-	=35-	=35-	=35-	=35-	=35-	=35-	=35-	=35-	=35-
!LO:TX:a:t=1.:mod=	!	!	!	!	!	!	!	!	!	!	!
1r	.	.	2.c\	-ſan-	-ſan-	2.e\	-San-	-san-	.	.	.
*	*	*	*	*	*	*	*	*	*custos:ee	*	*
.	.	.	.	.	.	.	.	.	4f\	-na	-na
!	!	!	!	!	!	!	!	!	!LO:LB:g=original	!	!
*	*	*	*	*	*	*	*	*	*xywh-#23:7153,1291,5961,745	*	*
.	.	.	.	.	.	.	.	.	4e\	in	in
!	!	!	!	!	!	!LO:TX:t=P:problem=kreska pseudotaktowa	!	!	!LO:TX:a:t=P:problem=# above	!	!
.	.	.	4B\	.	-na	4d\	-na	-na	8f#X\L	ex-	ex-
!	!	!	!	!	!	!	!	!	!LO:TX:a:t=P:problem=# above	!	!
!	!	!	!	!	!	!	!	!	!LO:TX:t=P:problem=kreska pseudotaktowa	!	!
.	.	.	.	.	.	.	.	.	8g#X\J	.	.
2r	.	.	4A/	-na	in	4c\	.	in	8a\L	-cel-	.
.	.	.	.	.	.	.	.	.	8e\J	.	.
!	!	!	!	!	!	!	!	!	!LO:SIC:v:o=2g#\	!	!
.	.	.	4G/	in	ex-	4B\	in	ex-	2gni	-ſis	-cel-
!LO:TX:t=P:problem=kreska pseudotaktowa	!	!	!LO:TX:t=P:problem=kreska pseudotaktowa	!	!	!LO:TX:t=P:problem=kreska pseudotaktowa	!	!	!	!	!
2D/	Ho-	Ho-	[2d\	ex-	-cel-	2A/	ex-	-cel-	.	.	.
!	!	!	!	!	!	!	!	!	!LO:TX:a:t=P:problem=# above	!	!
.	.	.	.	.	.	.	.	.	4f#X\	.	.
=36-	=36-	=36-	=36-	=36-	=36-	=36-	=36-	=36-	=36-	=36-	=36-
*	*	*	*	*	*	*	*	*	*	*ij	*
!	!	!	!	!	!	!	!	!	!LO:SIC:v:o=4g#y\	!	!
2.G\	-ſan-	-ſan-	8d\L]	.	.	2B\	-celsis	-sis	4g	Ho-	-sis
*	*	*	*	*	*	*	*	*	*	*	*ij
.	.	.	8c\	-cel-	.	.	.	.	.	.	.
!	!	!	!	!	!	!	!	!	!LO:SIC:v:o=4g#\	!	!
.	.	.	8B\	.	.	.	.	.	4g	-san-	Ho-
.	.	.	8A\J	.	.	.	.	.	.	.	.
!	!	!	!	!	!	!LO:TX:t=P:problem=kreska pseudotaktowa	!	!	!LO:SIC:v:o=4g#\	!	!
.	.	.	4B\	.	.	2r	.	.	4g	-na	-san-
!LO:TX:t=P:problem=kreska pseudotaktowa	!	!	!	!	!	!	!	!	!LO:TX:t=P:problem=kreska pseudotaktowa	!	!
4F\	-na	-na	8A\L	.	.	.	.	.	4a\	in	-na
!	!	!	!LO:TX:t=P:problem=kreska pseudotaktowa	!	!	!	!	!	!	!	!
.	.	.	8B\J	.	.	.	.	.	.	.	.
!	!	!	!LO:TX:a:t=P:problem=# above	!	!	!	!	!	!LO:SIC:v:o=4g#\	!	!
4E\	in	in	4c#X\	.	.	1r	.	.	4g	ex-	in
4D/	ex-	ex-	2d\	.	.	.	.	.	4f\	-cel-	ex-
!LO:TX:t=P:problem=kreska pseudotaktowa	!	!	!	!	!	!	!	!	!LO:TX:t=P:problem=kreska pseudotaktowa	!	!
2AA/	-cel-	-cel-	.	.	.	.	.	.	2e\	-ſis	-cel-
!	!	!	!LO:TX:t=P:problem=kreska pseudotaktowa	!	!	!	!	!	!	!	!
.	.	.	4c#\	.	.	.	.	.	.	.	.
=37-	=37-	=37-	=37-	=37-	=37-	=37-	=37-	=37-	=37-	=37-	=37-
2D/	-ſis	-ſis	4d\	-ſis	-ſis	2r	.	.	4f#X\	Ho-	-ſis
.	.	.	4D/	Ho-	Ho-	.	.	.	4f#\	-san-	Ho-
!LO:TX:t=P:problem=kreska pseudotaktowa	!	!	!	!	!	!LO:TX:t=P:problem=kreska pseudotaktowa	!	!	!	!	!
2r	.	.	4.d\	-ſan-	-ſan-	2D/	O-	Ho-	4.f#\	-na	-san-
!	!	!	!LO:TX:t=P:problem=kreska pseudotaktowa	!	!	!	!	!	!LO:TX:t=P:problem=kreska pseudotaktowa	!	!
.	.	.	8c\	.	-na	.	.	.	8e\	in	-na
1r	.	.	4B\	-na	in	4d\	-ſan-	-ſan-	4f#X\	.	in
.	.	.	4A/	in	.	4c\	-na	-na	4a\	ex-	ex-
.	.	.	2.E/	ex-	ex-	4B\	.	in	8g#X\L	-cel-	-cel-
.	.	.	.	.	.	.	.	.	8e\J	.	.
!	!	!	!	!	!	!LO:TX:t=P:problem=kreska pseudotaktowa	!	!	!	!	!
.	.	.	.	.	.	4c\	.	ex-	2a\	.	.
=38-	=38-	=38-	=38-	=38-	=38-	=38-	=38-	=38-	=38-	=38-	=38-
!	!	!	!LO:TX:t=P:problem=kreska pseudotaktowa	!	!	!	!	!	!	!	!
*	*ij	*ij	*	*	*	*	*	*	*	*	*
2E\	Ho-	Ho-	.	.	.	2B\	in	cel-	.	.	.
!	!	!	!	!	!	!	!	!	!LO:SIC:o=4g#y\	!	!
.	.	.	4.e\	-cel-	-cel-	.	.	.	4g#i	.	.
!LO:TX:t=P:problem=kreska pseudotaktowa	!	!	!	!	!	!	!	!	!LO:TX:t=P:problem=kreska pseudotaktowa	!	!
2.A\	-ſan-	-ſan-	.	.	.	4A/	ex-	-sis	2a\	-ſis	-ſis
.	.	.	8d\L	.	.	.	.	.	.	.	.
*	*	*	*	*	*	*	*	*ij	*	*	*
!	!	!	!	!	!	!LO:TX:t=P:problem=kreska pseudotaktowa	!	!	!	!	!
.	.	.	8c\	.	.	4A/	-celsis	Ho-	.	.	.
*	*	*	*custos:c	*	*	*	*	*	*	*	*
!	!	!	!LO:TX:t=P:problem=kreska pseudotaktowa	!	!	!	!	!	!	!	!
.	.	.	8B\J	.	.	.	.	.	.	.	.
!	!	!	!LO:LB:g=original	!	!	!	!	!	!	!	!
*	*	*	*	*	*	*	*ij	*	*	*	*
*	*	*	*xywh-#184:7072,2961,4175,830	*	*	*	*	*	*	*	*
.	.	.	4c\	.	.	4.e\	O-	-san-	1r	.	.
4G\	-na	-na	4B\	.	.	.	.	.	.	.	.
.	.	.	.	.	.	8e\	-ſan-	-na	.	.	.
4F\	in	in	8A\L	.	.	4f\	-na	in	.	.	.
.	.	.	8B\J	.	.	.	.	.	.	.	.
!	!	!	!	!	!	!LO:TX:t=P:problem=kreska pseudotaktowa	!	!	!	!	!
4E\	ex-	ex-	2c\	.	.	4c\	in	ex-	.	.	.
*	*	*	*	*	*	*	*	*	*	*Xij	*Xij
=39-	=39-	=39-	=39-	=39-	=39-	=39-	=39-	=39-	=39-	=39-	=39-
2G\	-cel-	-cel-	.	.	.	2d\	ex-	-cel-	4d\	Ho-	Ho-
.	.	.	4B\	-ſis	.	.	.	.	4.g\	-ſan-	-ſan-
*	*	*	*	*	*	*custos:cc	*	*	*	*	*
!	!	!	!LO:TX:t=P:problem=kreska pseudotaktowa	!	!	!LO:TX:t=P:problem=kreska pseudotaktowa	!	!	!	!	!
4C/	.	-sis	2c\	.	-sis	2e\	-celsis	-sis	.	.	.
.	.	.	.	.	.	.	.	.	8f\L	.	.
*	*	*Xij	*	*	*	*	*	*	*	*	*
!LO:TX:t=P:problem=kreska pseudotaktowa	!	!	!	!	!	!	!	!	!	!	!
4C/	-ſis	Ho-	.	.	.	.	.	.	8e\	.	.
.	.	.	.	.	.	.	.	.	16f\L	.	.
!	!	!	!	!	!	!	!	!	!LO:TX:t=P:problem=kreska pseudotaktowa	!	!
.	.	.	.	.	.	.	.	.	16g\JJ	.	.
*	*Xij	*	*	*	*	*	*	*	*	*	*
!	!	!	!	!	!	!LO:LB:g=original	!	!	!	!	!
*	*	*	*	*	*	*xywh-#110:1336,1368,4491,745	*	*	*	*	*
2.F\	Ho-	-san-	1r	.	.	4r	.	.	2.a\	-na	-na
*	*	*	*	*	*	*	*Xij	*Xij	*	*	*
.	.	.	.	.	.	4c\	O-	Ho-	.	.	.
!	!	!	!	!	!	!LO:TX:t=P:problem=kreska pseudotaktowa	!	!	!	!	!
.	.	.	.	.	.	2f\	.	-san-	.	.	.
4E\	-ſan-	-na	.	.	.	.	.	.	4g\	.	.
=40-	=40-	=40-	=40-	=40-	=40-	=40-	=40-	=40-	=40-	=40-	=40-
!	!	!	!LO:TX:t=P:problem=kreska pseudotaktowa	!	!	!	!	!	!	!	!
4D/	-na	in	1r	.	.	4f\	-ſan-	-na	8f\L	in	in
.	.	.	.	.	.	.	.	.	8g\	.	.
!LO:TX:a:t=P:problem=# below	!	!	!	!	!	!	!	!	!	!	!
4C#X/	.	ex-	.	.	.	2e\	-na	in	8a\	.	.
.	.	.	.	.	.	.	.	.	8g\J	.	.
!	!	!	!	!	!	!	!	!	!LO:TX:t=P:problem=kreska pseudotaktowa	!	!
8D\L	in	-cel-	.	.	.	.	.	.	2f\	ex-	ex-
8E\	.	.	.	.	.	.	.	.	.	.	.
!	!	!	!	!	!	!LO:TX:t=P:problem=kreska pseudotaktowa	!	!	!	!	!
8F\	ex-	.	.	.	.	4d\	in	ex-	.	.	.
!LO:TX:t=P:problem=kreska pseudotaktowa	!	!	!	!	!	!	!	!	!	!	!
8G\J	.	.	.	.	.	.	.	.	.	.	.
2A\	-cel-	.	2r	.	.	(4d\	ex-	-cel-	2e\	-cel	-cel-
!	!	!	!	!	!	!LO:TX:a:t=P:problem=# above	!	!	!	!	!
.	.	.	.	.	.	4c#X\)	.	.	.	.	.
*custos:D	*	*	*	*	*	*	*	*	*	*	*
!LO:TX:t=P:problem=kreska pseudotaktowa	!	!	!LO:TX:t=P:problem=kreska pseudotaktowa	!	!	!LO:TX:t=P:problem=kreska pseudotaktowa	!	!	!	!	!
2D/	-ſis	-ſis	2A/	Ho-	Ho-	2d\	-cel-	.	4f#X\	.	-[sis
!	!	!	!	!	!	!	!	!	!LO:TX:t=P:problem=kreska pseudotaktowa	!	!
.	.	.	.	.	.	.	.	.	4f#\	.	Ho-
!LO:LB:g=original	!	!	!	!	!	!	!	!	!	!	!
=41-	=41-	=41-	=41-	=41-	=41-	=41-	=41-	=41-	=41-	=41-	=41-
!LO:TX:t=P:problem=kreska pseudotaktowa	!	!	!	!	!	!	!	!	!LO:SIC:o=2.f#y\	!	!
*xywh-#276:7153,3627,5842,868	*	*	*	*	*	*	*	*	*	*	*
1r	.	.	4.d\	-ſan-	-ſan-	2D/	-ſis	-sis	2.f#i	.	-san-
.	.	.	8c\	-na	-na	.	.	.	.	.	.
*	*	*	*	*	*	*	*ij	*ij	*	*	*
.	.	.	4B\	in	in	4d\	O-	in	.	.	.
*	*	*	*	*	*	*	*	*	*custos:dd	*	*
!	!	!	!LO:TX:t=P:problem=kreska pseudotaktowa	!	!	!LO:TX:t=P:problem=kreska pseudotaktowa	!	!	!LO:TX:t=P:problem=kreska pseudotaktowa	!	!
.	.	.	4A/	.	ex-	4c\	-ſan-	.	4a\	.	-na
!	!	!	!	!	!	!	!	!	!LO:LB:g=original	!	!
*	*	*	*	*	*	*	*	*	*xywh-#23:7153,1915,6050,680	*	*
2r	.	.	8G/L	ex-	-cel-	4.B\	-na	.	4d\	.	in
.	.	.	8A/	.	.	.	.	.	.	.	.
.	.	.	8B/	-cel-	.	.	.	.	4g\	.	ex-
.	.	.	8c/J	.	.	8B\	in	ex-	.	.	.
!LO:TX:t=P:problem=kreska pseudotaktowa	!	!	!LO:TX:t=P:problem=kreska pseudotaktowa	!	!	!LO:TX:t=P:problem=kreska pseudotaktowa	!	!	!	!	!
*	*ij	*ij	*	*	*	*	*	*	*	*	*
2D/	Ho-	Ho-	[2d\	.	.	2A/	ex-	-cel-	4g\	.	-cel-
!	!	!	!	!	!	!	!	!	!LO:TX:t=P:problem=kreska pseudotaktowa	!	!
.	.	.	.	.	.	.	.	.	4f#X\	.	.
=42-	=42-	=42-	=42-	=42-	=42-	=42-	=42-	=42-	=42-	=42-	=42-
2.G\	-san-	-san-	8d\L]	.	.	2B\	-cel-	-sis	4g\	.	-sis
.	.	.	8c\	.	.	.	.	.	.	.	.
.	.	.	8B\	.	.	.	.	.	4d\	.	in
.	.	.	8A\J	.	.	.	.	.	.	.	.
!	!	!	!LO:TX:t=P:problem=kreska pseudotaktowa	!	!	!LO:TX:t=P:problem=kreska pseudotaktowa	!	!	!	!	!
.	.	.	2G/	.	.	2B\	-ſis	in	2.g\	.	ex-
4F\	-na	-na	.	.	.	.	.	.	.	.	.
4E\	in	in	2G/	-ſis	-ſis	4c\	O-	ex-	.	.	.
!	!	!	!	!	!	!	!	!	!LO:SIC:v:o=4f#X\	!	!
4D/	ex-	.	.	.	.	4d\	-san-	.	4f	.	.
4C/	-cel-	ex-	4.G/	in	in	4e\	-na	.	8e\L	.	.
!	!	!	!	!	!	!	!	!	!LO:SIC:v:o=8f#\	!	!
.	.	.	.	.	.	.	.	.	8f	.	.
4BB/	.	.	.	.	.	2d\	in-	.	8g\	.	.
!	!	!	!LO:TX:t=P:problem=kreska pseudotaktowa	!	!	!	!	!	!LO:SIC:v:o=8f#\J	!	!
.	.	.	8G/	ex-	ex-	.	.	.	8fJ	.	.
=43-	=43-	=43-	=43-	=43-	=43-	=43-	=43-	=43-	=43-	=43-	=43-
1C/	-ſis	-cel-	1G/	-cel-	-cel-	.	.	.	1e\	.	-cel-
.	.	.	.	.	.	8c\L	-ex-	.	.	.	.
.	.	.	.	.	.	8B\J	.	.	.	.	.
.	.	.	.	.	.	2c\	-cel-	-cel-	.	.	.
!	!	!	!	!	!	!LO:MO:mod=*null:null	!	!	!	!	!
*	*	*	*	*	*	*lig	*	*	*	*	*
!LO:MO:mod=1GG;	!	!	!LO:MO:mod=1G;	!	!	!LO:MO:mod=1B;	!	!	!LO:MO:mod=1d;	!	!
[1GG/;>l	.	-sis	[1G/;>l	-ſis	-ſis	1B\	-ſis	-ſis	[1d\;<l	.	-sis
*	*	*Xij	*	*	*	*	*	*Xij	*	*	*
!!LO:MO:ori
=44-	=44-	=44-	=44-	=44-	=44-	=44-	=44-	=44-	=44-	=44-	=44-
1G]	.	.	1G]	.	.	1B\	.	.	1d]	.	.
*	*Xij	*	*	*	*	*Xlig	*Xij	*Xij	*	*	*
!	!	!	!LO:LB:g=original	!	!	!	!	!	!	!	!
!!LO:MO:end
=45||-	=45||-	=45||-	=45||-	=45||-	=45||-	=45||-	=45||-	=45||-	=45||-	=45||-	=45||-
!LO:MO:mod=*null:null	!	!	!LO:MO:mod=*null:null	!	!	!LO:MO:mod=*null:null	!	!	!LO:MO:mod=*null:null	!	!
*M2/1	*	*	*M2/1	*	*	*M2/1	*	*	*M2/1	*	*
*met(C|)	*	*	*met(C|)	*	*	*met(C|)	*	*	*met(C|)	*	*
*	*	*	*xywh-#184:7108,3611,6088,914	*	*	*xywh-#110:1239,1959,5943,778	*	*	*	*	*
4.G\	BE-	Be-	4.B\	BE-	Be-	4.d\	Be-	Be-	2g\	.	Be-
8G\	-ne-	-ne-	8B\	-ne-	-ne-	8d\	-ne-	-ne-	.	.	.
(4c\	-di-	-di-	4c\	-di-	-di-	4.e\	-di-	-di-	4e\	.	-ne-
!LO:TX:t=P:problem=kreska pseudotaktowa	!	!	!	!	!	!	!	!	!	!	!
4B\)	.	.	8c\	.	-ctus	.	.	.	2g\	.	-dic-
!	!	!	!LO:TX:t=P:problem=kreska pseudotaktowa	!	!	!LO:TX:t=P:problem=kreska pseudotaktowa	!	!	!	!	!
.	.	.	8d\	-ctus	qui	8d\	.	.	.	.	.
2A\	-ctus	.	4e\	qui	ve-	2c\	-ctus	.	.	.	.
!	!	!	!	!	!	!	!	!	!LO:TX:a:t=P:problem=# above	!	!
.	.	.	8d\L	.	.	.	.	.	4f#X\	.	.
.	.	.	8c\J	.	.	.	.	.	.	.	.
!LO:TX:t=P:problem=kreska pseudotaktowa	!	!	!	!	!	!	!	!	!LO:TX:t=P:problem=kreska pseudotaktowa	!	!
2G\	.	-ctus	4d\	Ve-	-nit	4B\	.	-ctus	2g\	.	-tus
!	!	!	!LO:TX:t=P:problem=kreska pseudotaktowa	!	!	!LO:TX:t=P:problem=kreska pseudotaktowa	!	!	!	!	!
.	.	.	4d\	-nit	qui	4B\	qui	qui	.	.	.
=46-	=46-	=46-	=46-	=46-	=46-	=46-	=46-	=46-	=46-	=46-	=46-
2E\	qui	qui	4.e\	qui	ve-	4.c\	Ve-	ve-	2g\	.	qui
.	.	.	8d\L	.	.	8B\	.	.	.	.	.
!	!	!	!	!	!	!LO:TX:t=P:problem=kreska pseudotaktowa	!	!	!	!	!
4.F\	.	ve-	8c\	.	.	2A/	.	.	4.a\	.	ve-
.	.	.	8B\J	.	.	.	.	.	.	.	.
.	.	.	2c\	Ve-	.	.	.	.	.	.	.
!	!	!	!	!	!	!	!	!	!LO:TX:t=P:problem=kreska pseudotaktowa	!	!
8E\L	Ve-	.	.	.	.	.	.	.	8g\	.	.
8D\	.	.	.	.	.	2d\	.	.	8f\L	.	.
8C\J	.	.	.	.	.	.	.	.	8e\J	.	.
4D/	.	.	4B\	-nit	.	.	.	.	4f\	.	.
!LO:TX:t=P:problem=kreska pseudotaktowa	!	!	!LO:TX:t=P:problem=kreska pseudotaktowa	!	!	!	!	!	!LO:TX:t=P:problem=kreska pseudotaktowa	!	!
2C,/	-nit	-nit	2c\	.	-nit	4G/	-nit	-nit	2e\	.	-nit
!	!	!	!	!	!	!LO:TX:t=P:problem=kreska pseudotaktowa	!	!	!	!	!
.	.	.	.	.	.	4c\	.	qui	.	.	.
=47-	=47-	=47-	=47-	=47-	=47-	=47-	=47-	=47-	=47-	=47-	=47-
4.D/	Be-	Be-	1r	.	.	4A/	qui	ve-	2f#X\	.	qui
.	.	.	.	.	.	8B\L	Ve-	.	.	.	.
8D/	-ne-	-ne-	.	.	.	8A\J	.	.	.	.	.
4.E\	.	-di-	.	.	.	8G/L	.	.	4.g\	.	ve-
.	.	.	.	.	.	8A/J	.	.	.	.	.
.	.	.	.	.	.	2B\	.	.	.	.	.
!LO:TX:t=P:problem=kreska pseudotaktowa	!	!	!	!	!	!	!	!	!LO:TX:t=P:problem=kreska pseudotaktowa	!	!
8D/	-di-	.	.	.	.	.	.	.	8f#\	.	.
2C/	.	.	4r	.	.	.	.	.	4.e\	.	.
.	.	.	2e\	Be-	Be-	4A/	-nit	.	.	.	.
!	!	!	!	!	!	!	!	!	!LO:TX:a:t=P:problem=# above	!	!
.	.	.	.	.	.	.	.	.	8f#X\	.	.
*custos:E	*	*	*	*	*	*	*	*	*	*	*
!LO:TX:t=P:problem=kreska pseudotaktowa	!	!	!	!	!	!LO:TX:t=P:problem=kreska pseudotaktowa	!	!	!	!	!
2BB/	-cuts	-cuts	.	.	.	2B\	.	-nit	4g\	.	.
!	!	!	!LO:TX:t=P:problem=kreska pseudotaktowa	!	!	!	!	!	!LO:TX:a:t=P:problem=# above	!	!
!	!	!	!LO:TX:a:t=P:problem=# above	!	!	!	!	!	!	!	!
.	.	.	4d#X\	-ne-	-ne-	.	.	.	4f#X\	.	.
!LO:TX:b:t=qui venit:mod=	!	!	!	!	!	!	!	!	!	!	!
!LO:PB:g=original	!	!	!	!	!	!	!	!	!	!	!
=48-	=48-	=48-	=48-	=48-	=48-	=48-	=48-	=48-	=48-	=48-	=48-
*	*	*	*	*	*	*	*	*	*custos:gg	*	*
!	!	!	!	!	!	!	!	!	!LO:N:acc=-	!	!
*xywh-#277:1126,340,5963,991	*	*	*	*	*	*	*	*	*	*	*
4r	.	.	1e\	-di-	-di-	2r	.	.	2gn\	.	-nit
4E\	qui	qui	.	.	.	.	.	.	.	.	.
!	!	!	!	!	!	!	!	!	!LO:LB:g=original	!	!
*	*	*	*	*	*	*	*	*	*xywh-#23:7218,2434,5832,696	*	*
8C/L	.	ve-	.	.	.	4c\	qui	qui	4r	.	.
8D/	.	.	.	.	.	.	.	.	.	.	.
!	!	!	!	!	!	!	!	!	!LO:TX:t=P:problem=kreska pseudotaktowa	!	!
8E/	Ve-	.	.	.	.	8G/L	Ve-	ve-	4g\	.	qui
!LO:TX:t=P:problem=kreska pseudotaktowa	!	!	!	!	!	!LO:TX:t=P:problem=kreska pseudotaktowa	!	!	!	!	!
8F/J	.	.	.	.	.	8A/J	.	.	.	.	.
4G\	.	.	4B\	-ct(us)	-ctus	8B\L	.	.	8d\L	.	ve-
.	.	.	.	.	.	8c\J	.	.	8e\	.	.
4F\	.	.	4A/	.	qui	2d\	.	.	8f\	.	.
.	.	.	.	.	.	.	.	.	8d\J	.	.
!LO:TX:t=P:problem=kreska pseudotaktowa	!	!	!LO:TX:t=P:problem=kreska pseudotaktowa	!	!	!	!	!	!LO:TX:t=P:problem=kreska pseudotaktowa	!	!
2E\	-nit	.	2e\	qui	ve-	.	.	.	2g\	.	.
!	!	!	!	!	!	!LO:TX:a:t=P:problem=# above	!	!	!	!	!
!	!	!	!	!	!	!LO:TX:t=P:problem=kreska pseudotaktowa	!	!	!	!	!
.	.	.	.	.	.	4c#X\	-nit	.	.	.	.
=49-	=49-	=49-	=49-	=49-	=49-	=49-	=49-	=49-	=49-	=49-	=49-
!	!	!	!	!	!	!LO:TX:t=P:problem=kreska pseudotaktowa	!	!	!	!	!
1D\	.	-nit	2A/	ve-	-nit	1d\	.	-nit	4f\	.	-nit
.	.	.	.	.	.	.	.	.	4d\	.	in
.	.	.	4r	.	.	.	.	.	4.f\	.	no-
!	!	!	!LO:TX:t=P:problem=kreska pseudotaktowa	!	!	!	!	!	!	!	!
.	.	.	4A/	-nit	in	.	.	.	.	.	.
!	!	!	!	!	!	!	!	!	!LO:TX:t=P:problem=kreska pseudotaktowa	!	!
.	.	.	.	.	.	.	.	.	8f\	.	-mi-
!	!	!	!	!	!	!LO:TX:t=P:problem=kreska pseudotaktowa	!	!	!	!	!
2r	.	.	4.c\	in	no-	1r	.	.	4e\	.	-ne
.	.	.	.	.	.	.	.	.	2a\	.	Do-
.	.	.	8c\	.	-mi-	.	.	.	.	.	.
!LO:TX:t=P:problem=kreska pseudotaktowa	!	!	!	!	!	!	!	!	!	!	!
2E\	in	in	4B\	no-	-ne-	.	.	.	.	.	.
!	!	!	!	!	!	!	!	!	!LO:TX:a:t=P:problem=# above	!	!
.	.	.	2e\	-mi-	Do-	.	.	.	4g#X\	.	-mi-
=50-	=50-	=50-	=50-	=50-	=50-	=50-	=50-	=50-	=50-	=50-	=50-
4.F\	no-	no-	.	.	.	4A/	in	in	2a\	.	-ni
.	.	.	4d\	-ne	.	4.A/	no-	no-	.	.	.
8F\	-mi-	-mi-	.	.	.	.	.	.	.	.	.
!	!	!	!	!	!	!	!	!	!LO:TX:t=P:problem=kreska pseudotaktowa	!	!
4E,\	-ne	-ne	4c\	Do-	.	.	.	.	2r	.	.
.	.	.	.	.	.	8A/	-mi-	-mi-	.	.	.
*	*	*	*	*	*	*custos:a	*	*	*	*	*
!LO:TX:t=P:problem=kreska pseudotaktowa	!	!	!LO:TX:t=P:problem=kreska pseudotaktowa	!	!	!LO:TX:t=P:problem=kreska pseudotaktowa	!	!	!	!	!
!	!	!	!	!	!	!LO:TX:a:t=P:problem=# below	!	!	!	!	!
4E\	in	in	4B\	-mi-	-mi-	4G#X/	-ne	-ne	.	.	.
!	!	!	!	!	!	!LO:LB:g=original	!	!	!	!	!
*	*	*	*	*	*	*xywh-#110:1368,2600,5829,754	*	*	*	*	*
4.A\	no-	no-	2c,\	-ni	-ni	8A\L	Do-	Do-	1r	.	.
.	.	.	.	.	.	8B\J	.	.	.	.	.
.	.	.	.	.	.	2c\	.	.	.	.	.
8G\	-mi-	-mi-	.	.	.	.	.	.	.	.	.
*	*	*	*custos:e	*	*	*	*	*	*	*	*
!	!	!	!LO:TX:t=P:problem=kreska pseudotaktowa	!	!	!	!	!	!	!	!
8F,\	-ne	-ne	2d\	in	in	.	.	.	.	.	.
8F\	in	in	.	.	.	.	.	.	.	.	.
!	!	!	!	!	!	!LO:TX:t=P:problem=kreska pseudotaktowa	!	!	!	!	!
8G\L	no-	no-	.	.	.	4B\	-mi-	-mi-	.	.	.
!LO:TX:t=P:problem=kreska pseudotaktowa	!	!	!	!	!	!	!	!	!	!	!
8F\J	.	.	.	.	.	.	.	.	.	.	.
!	!	!	!LO:PB:g=original	!	!	!	!	!	!	!	!
=51-	=51-	=51-	=51-	=51-	=51-	=51-	=51-	=51-	=51-	=51-	=51-
*	*	*	*xywh-#185:883,414,6142,1037	*	*	*	*	*	*	*	*
8E/L	.	.	4.e\	no-	no-	4c\	-ni	-ni	4G/	.	in
8D/	.	.	.	.	.	.	.	.	.	.	.
8C/	.	.	.	.	.	4G/	in	in	4.g\	.	no-
8BB/J	.	.	8d\	.	.	.	.	.	.	.	.
4.AA/	.	.	4.c\	-mi-	.	4.A/	no-	no-	.	.	.
.	.	.	.	.	.	.	.	.	8g\	.	-mi-
!	!	!	!	!	!	!	!	!	!LO:TX:t=P:problem=kreska pseudotaktowa	!	!
.	.	.	.	.	.	.	.	.	4f#X\	.	-ne
!LO:TX:t=P:problem=kreska pseudotaktowa	!	!	!LO:TX:t=P:problem=kreska pseudotaktowa	!	!	!LO:TX:t=P:problem=kreska pseudotaktowa	!	!	!	!	!
8AA/	-mi-	-mi-	8c\	-ne	-mi-	8A/	-mi-	-mi-	.	.	.
4GG/	-ne	-ne	4B\	.	-ne	4d\	-ne	-ne	4.g\	.	Do-
2G\	Do-	Do-	8G/L	Do-	Do-	8d\L	Do-	Do-	.	.	.
!	!	!	!	!	!	!	!	!	!LO:SIC:v:o=8f#\	!	!
.	.	.	8A/J	.	.	8c\J	.	.	8fni	.	.
.	.	.	8B\L	.	.	4B\	.	.	8d\L	.	.
.	.	.	8c\J	.	.	.	.	.	8e\	.	.
!LO:TX:t=P:problem=kreska pseudotaktowa	!	!	!	!	!	!LO:TX:t=P:problem=kreska pseudotaktowa	!	!	!LO:SIC:v:o=8f#\	!	!
4F\	.	.	2d\	.	.	4A/	.	.	8f	.	.
!	!	!	!	!	!	!	!	!	!LO:TX:t=P:problem=kreska pseudotaktowa	!	!
.	.	.	.	.	.	.	.	.	8d\J	.	.
=52-	=52-	=52-	=52-	=52-	=52-	=52-	=52-	=52-	=52-	=52-	=52-
2.E\	-mi-	.	.	.	.	2.e\	-mi-	.	2.g\	.	.
!	!	!	!LO:TX:a:t=P:problem=# above	!	!	!	!	!	!	!	!
.	.	.	8c#X\L	.	.	.	.	.	.	.	.
.	.	.	8B\J	.	.	.	.	.	.	.	.
.	.	.	4.c#\	-mi-	.	.	.	.	.	.	.
!	!	!	!	!	!	!LO:TX:t=P:problem=kreska pseudotaktowa	!	!	!	!	!
4E\	-ni	-mi-	.	.	.	4e\	-ni	-mi-	4g\	.	-mi-
!	!	!	!LO:TX:t=P:problem=kreska pseudotaktowa	!	!	!	!	!	!	!	!
.	.	.	8c#\	-ni	-mi-	.	.	.	.	.	.
!	!	!	!LO:TX:t=P:problem=kreska pseudotaktowa	!	!	!	!	!	!LO:TX:t=P:problem=kreska pseudotaktowa	!	!
2D,/	.	-ni	1d\	.	-ni	4A/	in	-ni	1f#X\,	.	-ni
.	.	.	.	.	.	4A/	.	in	.	.	.
!LO:TX:t=P:problem=kreska pseudotaktowa	!	!	!	!	!	!	!	!	!	!	!
2D/	Ho-	Ho-	.	.	.	4.d\	no-	no-	.	.	.
!	!	!	!	!	!	!LO:TX:t=P:problem=kreska pseudotaktowa	!	!	!	!	!
.	.	.	.	.	.	8c\	-mi-	-mi-	.	.	.
=53-	=53-	=53-	=53-	=53-	=53-	=53-	=53-	=53-	=53-	=53-	=53-
4.G\	-ſan-	-ſan-	1r	.	.	4B\	-ne	-ne	4d\	.	Ho-
.	.	.	.	.	.	8G/L	Do-	Do-	2g\	.	-san-
8F\	-na	-na	.	.	.	8A/J	.	.	.	.	.
4E\	in	in	.	.	.	8B\L	.	.	.	.	.
.	.	.	.	.	.	8c\	.	.	.	.	.
*custos:A	*	*	*	*	*	*	*	*	*	*	*
!LO:TX:t=P:problem=kreska pseudotaktowa	!	!	!	!	!	!	!	!	!LO:TX:t=P:problem=kreska pseudotaktowa	!	!
4D/	ex-	ex-	.	.	.	8d\	.	.	4f\	.	-na
!	!	!	!	!	!	!LO:TX:t=P:problem=kreska pseudotaktowa	!	!	!	!	!
.	.	.	.	.	.	8B\J	.	.	.	.	.
!LO:LB:g=original	!	!	!	!	!	!LO:TX:a:t=P:problem=# above	!	!	!	!	!
*xywh-#277:1237,1111,4255,798	*	*	*	*	*	*	*	*	*	*	*
4A\	-cel-	-cel-	2r	.	.	4c#X\	.	.	4e\	.	in
4B-X\	.	.	.	.	.	2d\	-mi-	.	4g\	.	ex-
!LO:TX:t=P:problem=kreska pseudotaktowa	!	!	!	!	!	!	!	!	!LO:TX:t=P:problem=kreska pseudotaktowa	!	!
2A\	.	.	4r	.	.	.	.	.	2e\	.	-cel-
!	!	!	!LO:TX:t=P:problem=kreska pseudotaktowa	!	!	!	!	!	!	!	!
.	.	.	4G/	Ho-	Ho-	4c#\	-ni	-mi-	.	.	.
=54-	=54-	=54-	=54-	=54-	=54-	=54-	=54-	=54-	=54-	=54-	=54-
4D/	.	-sis	4.d\	-ſan-	-ſan-	2d\	.	-ni	4f#X\	.	-sis
*	*	*ij	*	*	*	*	*	*	*	*	*
4D/	-ſis	Ho-	.	.	.	.	.	.	4f#\	.	Ho-
.	.	.	8c\	.	-na	.	.	.	.	.	.
!	!	!	!	!	!	!LO:TX:t=P:problem=kreska pseudotaktowa	!	!	!	!	!
*	*ij	*	*	*	*	*	*	*	*	*	*
4.G\	Ho-	-san-	4B\	.	in	2r	.	.	4.g\	.	-san-
!	!	!	!LO:TX:t=P:problem=kreska pseudotaktowa	!	!	!	!	!	!	!	!
.	.	.	4B\	-na	ex-	.	.	.	.	.	.
!LO:TX:t=P:problem=kreska pseudotaktowa	!	!	!	!	!	!	!	!	!LO:TX:t=P:problem=kreska pseudotaktowa	!	!
8G\	-san-	-na	.	.	.	.	.	.	8g\	.	-na
4F#X\	-na	in	4d\	in	-cel-	2r	.	.	4.a\	.	in
4A\	in	ex-	4c\	ex-	.	.	.	.	.	.	.
*	*	*	*	*	*	*	*	*	*custos:aa	*	*
.	.	.	.	.	.	.	.	.	8a\	.	ex-
!	!	!	!	!	!	!	!	!	!LO:LB:g=original	!	!
!LO:TX:t=P:problem=kreska pseudotaktowa	!	!	!LO:TX:t=P:problem=kreska pseudotaktowa	!	!	!	!	!	!	!	!
*	*	*	*	*	*	*	*	*	*xywh-#23:7226,3057,2810,704	*	*
2E\	ex-	-cel-	2B\	-cel-	.	4B\	Ho-	Ho-	4a\	.	-cel-
!	!	!	!	!	!	!LO:TX:t=P:problem=kreska pseudotaktowa	!	!	!LO:TX:t=P:problem=kreska pseudotaktowa	!	!
!	!	!	!	!	!	!LO:MO:mod=[4e	!	!	!	!	!
.	.	.	.	.	.	4.e\	.	-san-	4g#X\	.	.
=55-	=55-	=55-	=55-	=55-	=55-	=55-	=55-	=55-	=55-	=55-	=55-
!	!	!	!LO:TX:a:t=P:problem=# above	!LO:MO:null:mod=8e]L	!	!	!	!	!	!	!
2AA/	-celsis	-sis	2c#X\	-ſis	-ſis	.	.	.	4a\	.	-sis
!	!	!	!	!	!	!LO:MO:mod=8d	!	!	!	!	!
.	.	.	.	.	.	8d\L	-ſan-	.	.	.	.
!	!	!	!	!	!	!LO:TX:a:t=P:problem=# above	!	!	!	!	!
.	.	.	.	.	.	8c#X\	.	.	4e\	.	Ho-
.	.	.	.	.	.	8B\J	.	.	.	.	.
*	*Xij	*Xij	*	*	*	*	*	*	*	*	*
!	!	!	!LO:TX:t=P:problem=kreska pseudotaktowa	!	!	!LO:TX:t=P:problem=kreska pseudotaktowa	!	!	!	!	!
!	!	!	!	!	!	!LO:TX:a:t=P:problem=# above	!	!	!	!	!
2AA/	Ho-	Ho-	2r	.	.	2c#X\	-na	.	4.a\	.	-san-
!	!	!	!	!	!	!	!	!	!LO:TX:t=P:problem=kreska pseudotaktowa	!	!
.	.	.	.	.	.	.	.	.	8g\	.	-na
!	!	!	!	!	!	!	!	!	!LO:TX:a:t=P:problem=# above	!	!
*	*	*	*	*	*	*	*ij	*	*	*	*
4.D/	-ſan-	-ſan-	2r	.	.	4d\	Ho-	-na	4.f#X\	.	in
*	*	*	*	*	*	*custos:b	*	*ij	*	*	*
.	.	.	.	.	.	4A/	.	Ho-	.	.	.
8C/	-na	-na	.	.	.	.	.	.	8f#\	.	ex-
!	!	!	!	!	!	!LO:LB:g=original	!	!	!	!	!
*	*	*	*	*	*	*xywh-#110:1328,3232,2975,794	*	*	*	*	*
4BB/	.	in	4G/	Ho-	Ho-	4B/	-san-	-san-	4g\	.	-cel-
!LO:TX:t=P:problem=kreska pseudotaktowa	!	!	!	!	!	!LO:TX:t=P:problem=kreska pseudotaktowa	!	!	!LO:TX:t=P:problem=kreska pseudotaktowa	!	!
4FF#X/	in	ex-	8d\L	-ſan-	-ſan-	4A/	-na	.	4a\	.	.
!	!	!	!LO:TX:t=P:problem=kreska pseudotaktowa	!	!	!	!	!	!	!	!
.	.	.	8c#\J	.	.	.	.	.	.	.	.
*	*	*	*	*	*	*	*Xij	*	*	*	*
=56-	=56-	=56-	=56-	=56-	=56-	=56-	=56-	=56-	=56-	=56-	=56-
1GG/	ex-	-cel-	4B\	.	.	4G/	in	-na	2d\	.	-sis
*	*	*	*	*	*	*	*	*Xij	*	*	*
.	.	.	4c\	.	.	4A/	ex-	in	.	.	.
.	.	.	8d\L	.	.	8B/L	-cel-	ex-	4.g\	.	in
.	.	.	8B\	.	.	8G/	.	.	.	.	.
.	.	.	8c\	.	.	8A/	.	.	.	.	.
!	!	!	!LO:TX:t=P:problem=kreska pseudotaktowa	!	!	!LO:TX:t=P:problem=kreska pseudotaktowa	!	!	!LO:TX:t=P:problem=kreska pseudotaktowa	!	!
.	.	.	8d\J	.	.	8B/J	.	.	8g\	.	ex-
*	*	*	*	*	*	*	*	*	*lig	*	*
1C/	-cel-	.	4e\	-na	.	4c\	.	.	1e\	.	-cel-
.	.	.	4d\	.	-na	4B\	.	.	.	.	.
.	.	.	2.c\	in	in	4A/	.	.	.	.	.
.	.	.	.	.	.	4G/	.	.	.	.	.
=57-	=57-	=57-	=57-	=57-	=57-	=57-	=57-	=57-	=57-	=57-	=57-
!	!	!	!	!	!	!LO:TX:t=P:problem=kreska pseudotaktowa	!	!	!	!	!
!	!	!	!	!	!	!LO:TX:a:t=P:problem=# below	!	!	!	!	!
1D\	.	.	.	.	.	4F#X/	.	.	1d\	.	.
.	.	.	4B\	ex-	ex-	2G/	.	.	.	.	.
.	.	.	2A/	-cel-	-cel-	.	.	.	.	.	.
.	.	.	.	.	.	4F#/	.	.	.	.	.
*	*	*	*	*	*	*lig	*	*	*Xlig	*	*
!LO:MO:mod=1GG;	!	!	!LO:MO:mod=1B;	!	!	!LO:MO:mod=1G;	!	!	!LO:MO:mod=1d;	!	!
[1GG/;>l	-ſis	-ſis	[1B\;>l	-ſis	-ſis	1G/	-ſis	-ſis	[1d\;<l	.	-sis]
!!LO:MO:ori
=58-	=58-	=58-	=58-	=58-	=58-	=58-	=58-	=58-	=58-	=58-	=58-
1GG]	.	.	1B]	.	.	1G/;<	.	.	1d]	.	.
*	*	*	*	*	*	*Xlig	*	*	*	*	*
!!LO:MO:end
==	==	==	==	==	==	==	==	==	==	==	==
*-	*-	*-	*-	*-	*-	*-	*-	*-	*-	*-	*-
!!!system-decoration: [(*)]
!!!RDF**kern: > = above
!!!RDF**kern: < = below
!!!RDF**kern: i = editorial accidental
!!LO:MO:ori
!!!RDF**kern: l = terminal long
!!LO:MO:end
!!!filter-modern: sic -sq  | shed -e "s/TX(.*):t=P:/tx$1:t=P:/LG" | shed -k -e "s/[<>]//g" | shed -e "s/^custos:/Xcustos:/I" | shed -e "s/^(\d+[\/\\]right)/$1yy/I;s/^(\d+[\/\\]left)/$1yy/I" | shed -k -e "s/LO:N:acc/LO:n:acc:/L" | shed -k -e "s/LO:N:vis/LO:n:vis:/L" | shed -e "s/-//B" | autostem -r | tie -s | modori -m | humtr -p
!!!ENC: Anastazja Marusiak
!!!END: 2021-03-03
!!!EED: Leszek Kubiak
!!!EEV: 2021-03-11
!!!ENC-modern: Andrzej Borzym
!!!END-modern: 2022-07-22
!!!ENC-iiif: Konrad Tyszka
!!!END-iiif: 2022-08-31
